app/images/icon/facebook.svg

<svg width="49" height="49" viewBox="0 0 49 49" fill="none" xmlns="http://www.w3.org/2000/svg">
<path d="M49 24.5614C49 11.0035 38.024 0 24.5 0C10.976 0 0 11.0035 0 24.5614C0 36.4491 8.428 46.3474 19.6 48.6316V31.9298H14.7V24.5614H19.6V18.4211C19.6 13.6807 23.4465 9.82456 28.175 9.82456H34.3V17.193H29.4C28.0525 17.193 26.95 18.2982 26.95 19.6491V24.5614H34.3V31.9298H26.95V49C39.3225 47.7719 49 37.3088 49 24.5614Z" fill="#33D5BE"/>
</svg>

<svg width="49" height="49" fill="none" xmlns="http://www.w3.org/2000/svg">
    <path d="M49 24.561C49 11.004 38.024 0 24.5 0S0 11.004 0 24.561c0 11.888 8.428 21.786 19.6 24.07V31.93h-4.9V24.56h4.9v-6.14c0-4.74 3.846-8.596 8.575-8.596H34.3v7.368h-4.9a2.46 2.46 0 0 0-2.45 2.456v4.912h7.35v7.369h-7.35V49C39.322 47.772 49 37.309 49 24.561Z" fill="#33D5BE"/>
</svg>
